build/img/success-modal-img.svg

<svg width="194" height="270" viewBox="0 0 194 270" fill="none" xmlns="http://www.w3.org/2000/svg">
<path d="M50.3297 74.6552C48.6883 71.4062 37.6421 29.7411 55.0977 17.229" stroke="#A19B9B" stroke-width="2" stroke-linecap="round"/>
<path d="M51.9988 74.6756C49.5499 71.9826 27.2304 35.5181 40.7134 18.8012" stroke="#A19B9B" stroke-width="2" stroke-linecap="round"/>
<path d="M48.5616 75.335C45.4472 73.4507 16.8992 42.7586 25.0645 22.8946" stroke="#A19B9B" stroke-width="2" stroke-linecap="round"/>
<path d="M28.9307 79.5161C31.462 79.6727 34.8851 79.6626 39.0446 79.1293C47.7134 78.0179 59.5333 74.6396 73.1044 65.8271C73.3146 73.5631 74.0867 81.6272 75.9224 88.6278C78.031 96.6692 81.6747 103.808 88.012 107.049L88.6242 107.362L89.2994 107.232C96.2306 105.903 103.128 108.048 109.203 112.604C115.289 117.168 120.449 124.09 123.754 132.03C130.384 147.957 129.352 167.312 114.416 179.537C97.9929 192.98 80.7618 195.955 66.6548 194.055C59.5844 193.103 53.3018 190.926 48.3069 188.226C43.2807 185.509 39.6842 182.333 37.841 179.472C31.5496 169.706 28.2529 159.938 28.3952 150.68C28.5368 141.466 32.0852 132.575 39.8231 124.491C43.6317 120.513 44.3686 115.221 43.6179 109.927C42.8687 104.643 40.6081 99.0582 38.014 94.0395C35.4079 88.9978 32.4002 84.4043 30.053 81.0803C29.6593 80.5227 29.2835 80 28.9307 79.5161Z" stroke="#A19B9B" stroke-width="4" stroke-linecap="round"/>
<path d="M76.1107 103.895C77.2582 107.703 77.1595 111.1 75.8901 111.483C74.6208 111.865 74.7845 108.909 73.637 105.101C72.4894 101.293 70.4652 98.075 71.7345 97.6925C73.0039 97.31 74.9631 100.087 76.1107 103.895Z" fill="#A19B9B"/>
<path d="M43.0981 166.898C44.7969 171.333 47.722 174 46.0959 174.623C44.4698 175.246 41.7745 172.156 40.0758 167.721C38.3771 163.286 38.3182 159.186 39.9443 158.563C41.5704 157.94 41.3994 162.464 43.0981 166.898Z" fill="#A19B9B"/>
<circle cx="56.465" cy="139.465" r="2.5" transform="rotate(-33.5368 56.465 139.465)" fill="#A19B9B"/>
<circle cx="89.5991" cy="127.599" r="2.5" transform="rotate(2.31989 89.5991 127.599)" fill="#A19B9B"/>
<path d="M69.6342 170.223C81.5396 176.475 97.2667 168.198 96.377 154.75" stroke="#A19B9B" stroke-width="2" stroke-linecap="round" stroke-linejoin="round"/>
<path d="M25.4081 76.7212C34.0227 70.3171 53.4756 59.0171 74.1564 62.789" stroke="#A19B9B" stroke-width="2" stroke-linecap="round"/>
<path d="M63.7789 137.632C64.4318 138.617 64.6488 139.379 64.6447 139.982C64.6407 140.574 64.4232 141.137 63.9669 141.734C63.4993 142.345 62.8079 142.956 61.9197 143.613C61.1873 144.155 60.3663 144.697 59.4781 145.283C59.2896 145.407 59.0981 145.534 58.9038 145.663C58.7095 145.791 58.5185 145.919 58.3305 146.044C57.4446 146.633 56.6258 147.179 55.8414 147.642C54.89 148.204 54.0583 148.603 53.3129 148.795C52.5854 148.983 51.9819 148.964 51.4354 148.737C50.8782 148.506 50.2617 148.01 49.6089 147.025C47.0153 143.112 48.0849 137.837 51.9979 135.243C55.9108 132.65 61.1854 133.72 63.7789 137.632Z" stroke="#A19B9B" stroke-width="2"/>
<path d="M95.4601 127.297C95.8964 128.395 95.9522 129.184 95.8241 129.774C95.6985 130.352 95.3698 130.859 94.8005 131.349C94.2171 131.851 93.4149 132.307 92.4104 132.767C91.5822 133.147 90.6674 133.508 89.6776 133.899C89.4675 133.982 89.2541 134.066 89.0375 134.152C88.8208 134.239 88.6078 134.324 88.3981 134.407C87.4098 134.802 86.4964 135.167 85.6334 135.46C84.5868 135.814 83.6908 136.033 82.9218 136.068C82.1712 136.102 81.5846 135.959 81.0964 135.625C80.5987 135.284 80.0975 134.672 79.6612 133.573C77.928 129.211 80.0596 124.269 84.4224 122.536C88.7851 120.802 93.7269 122.934 95.4601 127.297Z" stroke="#A19B9B" stroke-width="2"/>
<circle cx="60.2042" cy="16.5901" r="4.5" transform="rotate(-10.8577 60.2042 16.5901)" fill="#A19B9B" stroke="#A19B9B" stroke-width="2"/>
<circle cx="45.4727" cy="19.4158" r="4.5" transform="rotate(-10.8577 45.4727 19.4158)" fill="#A19B9B" stroke="#A19B9B" stroke-width="2"/>
<circle cx="29.1939" cy="19.4834" r="4.5" transform="rotate(-10.8577 29.1939 19.4834)" fill="#A19B9B" stroke="#A19B9B" stroke-width="2"/>
<path d="M4.74658 217.885C4.74658 217.885 45.8281 227.962 96.8056 215.565C147.783 203.168 185.479 173.932 185.479 173.932" stroke="#A19B9B" stroke-width="5" stroke-linecap="round" stroke-linejoin="round"/>
<path d="M24.3625 241.416C24.3625 241.416 58.5039 249.579 102.477 238.885C146.45 228.192 174.973 204.789 174.973 204.789" stroke="#A19B9B" stroke-width="4" stroke-linecap="round" stroke-linejoin="round"/>
<path d="M63.3074 257.673C63.3074 257.673 74.668 265.202 106.967 257.347C139.266 249.493 145.756 241.225 145.756 241.225" stroke="#A19B9B" stroke-width="3" stroke-linecap="round" stroke-linejoin="round"/>
</svg>

<svg width="194" height="270" fill="none" xmlns="http://www.w3.org/2000/svg"><path d="M50.33 74.655c-1.642-3.249-12.688-44.914 4.768-57.426M51.999 74.676C49.549 71.983 27.23 35.518 40.713 18.8M48.562 75.335c-3.115-1.884-31.663-32.576-23.497-52.44" stroke="#A19B9B" stroke-width="2" stroke-linecap="round"/><path d="M28.93 79.516c2.532.157 5.955.147 10.115-.387 8.668-1.111 20.488-4.49 34.06-13.302.21 7.736.982 15.8 2.817 22.8 2.109 8.042 5.753 15.181 12.09 18.422l.612.313.675-.13c6.932-1.329 13.829.816 19.904 5.372 6.086 4.564 11.246 11.486 14.551 19.426 6.63 15.927 5.598 35.282-9.338 47.507-16.423 13.443-33.654 16.418-47.761 14.518-7.07-.952-13.353-3.129-18.348-5.829-5.026-2.717-8.623-5.893-10.466-8.754-6.291-9.766-9.588-19.534-9.446-28.792.142-9.214 3.69-18.105 11.428-26.189 3.809-3.978 4.546-9.27 3.795-14.564-.75-5.284-3.01-10.869-5.604-15.888-2.606-5.041-5.614-9.635-7.961-12.959-.394-.557-.77-1.08-1.122-1.564z" stroke="#A19B9B" stroke-width="4" stroke-linecap="round"/><path d="M76.11 103.895c1.148 3.808 1.05 7.205-.22 7.588-1.27.382-1.106-2.574-2.253-6.382-1.148-3.808-3.172-7.026-1.903-7.409 1.27-.382 3.23 2.395 4.377 6.203zM43.098 166.898c1.699 4.435 4.624 7.102 2.998 7.725-1.626.623-4.321-2.467-6.02-6.902-1.699-4.435-1.758-8.535-.132-9.158 1.626-.623 1.455 3.901 3.154 8.335z" fill="#A19B9B"/><circle cx="56.465" cy="139.465" r="2.5" transform="rotate(-33.537 56.465 139.465)" fill="#A19B9B"/><circle cx="89.599" cy="127.599" r="2.5" transform="rotate(2.32 89.6 127.599)" fill="#A19B9B"/><path d="M69.634 170.223c11.906 6.252 27.633-2.025 26.743-15.473" stroke="#A19B9B" stroke-width="2" stroke-linecap="round" stroke-linejoin="round"/><path d="M25.408 76.721c8.615-6.404 28.068-17.704 48.748-13.932" stroke="#A19B9B" stroke-width="2" stroke-linecap="round"/><path d="M63.779 137.632c.653.985.87 1.747.866 2.35-.004.592-.222 1.155-.678 1.752-.468.611-1.16 1.222-2.047 1.879-.733.542-1.554 1.084-2.442 1.67l-.574.38c-.195.128-.386.256-.574.381-.885.589-1.704 1.135-2.489 1.598-.951.562-1.783.961-2.528 1.153-.728.188-1.331.169-1.878-.058-.557-.231-1.173-.727-1.826-1.712a8.501 8.501 0 0 1 14.17-9.393zM95.46 127.297c.436 1.098.492 1.887.364 2.477-.126.578-.454 1.085-1.023 1.575-.584.502-1.386.958-2.39 1.418-.829.38-1.744.741-2.733 1.132l-.64.253-.64.255c-.988.395-1.902.76-2.765 1.053-1.046.354-1.942.573-2.711.608-.75.034-1.337-.109-1.826-.443-.497-.341-.999-.953-1.435-2.052a8.5 8.5 0 0 1 4.761-11.037 8.499 8.499 0 0 1 11.038 4.761z" stroke="#A19B9B" stroke-width="2"/><circle cx="60.204" cy="16.59" r="4.5" transform="rotate(-10.858 60.204 16.59)" fill="#A19B9B" stroke="#A19B9B" stroke-width="2"/><circle cx="45.473" cy="19.416" r="4.5" transform="rotate(-10.858 45.473 19.416)" fill="#A19B9B" stroke="#A19B9B" stroke-width="2"/><circle cx="29.194" cy="19.483" r="4.5" transform="rotate(-10.858 29.194 19.483)" fill="#A19B9B" stroke="#A19B9B" stroke-width="2"/><path d="M4.747 217.885s41.081 10.077 92.059-2.32c50.977-12.397 88.673-41.633 88.673-41.633" stroke="#A19B9B" stroke-width="5" stroke-linecap="round" stroke-linejoin="round"/><path d="M24.363 241.416s34.14 8.163 78.114-2.531c43.973-10.693 72.496-34.096 72.496-34.096" stroke="#A19B9B" stroke-width="4" stroke-linecap="round" stroke-linejoin="round"/><path d="M63.307 257.673s11.361 7.529 43.66-.326c32.299-7.854 38.789-16.122 38.789-16.122" stroke="#A19B9B" stroke-width="3" stroke-linecap="round" stroke-linejoin="round"/></svg>
